X: 639
T:Jig of Port Fleadh, The
R:jig
S:Mike Rafferty from Jack Coen
C:Sean Ryan
N:Posted to the woodenflute mailing list April 2003
Z:lesl
M:6/8
K:G
~G2A|:~B2G AGE|DBD GBd|gz d edB|edB AGA|
B2G AGE|DBD GBd|g{a}gd edB|1 cAF ~GGA:|2 cAF G3||
|:~g2e fed|edB GBd|gz e (3fga f|gfe def|
~g2e fed|edB GBd|gdB ecA|DEF G3:||
<end>
<start>
